X:2
T:3. Ronde
C:Tielman Susato
S:Tileman Susato: Danserye (1551)
R:Ronde
M:4/2
L:1/2
T: Altus
K:C -8va
dd/2d/2dd|ddBc|ccAB|Ad2^c|dd/2d/2dd|ddBc|
cBdB|A2AA::dddc/2d/2|e/2c/2dec|efeB|cAA2:|
